resources/icons/20px/team.svg

<svg width="20" height="20" viewBox="0 0 20 20" fill="none" xmlns="http://www.w3.org/2000/svg">
<path fill-rule="evenodd" clip-rule="evenodd" d="M17.6912 15.328C17.235 14.272 15.0101 13.576 13.5374 12.92C12.0568 12.264 12.2649 11.872 12.2089 11.328C12.2009 11.256 12.2009 11.176 12.1929 11.096C12.6971 10.648 13.1133 10.032 13.3854 9.32C13.3854 9.32 13.4014 9.28 13.4014 9.272C13.4574 9.12 13.5054 8.96 13.5535 8.792C13.8896 8.72 14.0897 8.352 14.1617 8.008C14.2417 7.872 14.3938 7.528 14.3618 7.144C14.3138 6.648 14.1137 6.416 13.8896 6.32V6.232C13.8896 5.6 13.8336 4.688 13.7135 4.088C13.6895 3.92 13.6495 3.752 13.6015 3.592C13.3854 2.856 12.9292 2.2 12.3209 1.736C11.6887 1.256 10.8003 1 10.008 1C9.21566 1 8.3273 1.256 7.69504 1.736C7.08679 2.2 6.6306 2.856 6.41451 3.592C6.36649 3.752 6.32647 3.92 6.30246 4.088C6.19042 4.688 6.12639 5.6 6.12639 6.232V6.312C5.89429 6.4 5.68621 6.632 5.63819 7.144C5.60617 7.528 5.75824 7.872 5.83827 8.008C5.9183 8.36 6.11839 8.736 6.47053 8.792C6.51055 8.96 6.56657 9.12 6.62259 9.272C6.62259 9.28 6.6306 9.296 6.6306 9.304L6.6386 9.32C6.91071 10.048 7.33489 10.672 7.8551 11.12C7.8551 11.192 7.8471 11.264 7.8391 11.328C7.78307 11.872 7.94314 12.264 6.46253 12.92C4.98192 13.576 2.765 14.272 2.30881 15.328C1.85263 16.384 2 19 2 19H18C18 19 18.1474 16.384 17.6912 15.328Z" fill="black"/>
<path d="M1.33991 15.1492C1.19158 15.4519 1 15.843 1 19H0V15C0 13.6998 0.851428 12.8966 1.90465 12.43C3.05381 11.9209 3.07345 11.5934 3.09743 11.1937C3.10048 11.1428 3.10361 11.0908 3.10915 11.037C3.11615 10.981 3.12315 10.918 3.12315 10.855C2.66796 10.463 2.29681 9.917 2.05871 9.28L2.05171 9.266C2.05171 9.2625 2.04996 9.25725 2.04821 9.252L2.04662 9.24713C2.04554 9.24364 2.04471 9.24041 2.04471 9.238C1.99569 9.105 1.94667 8.965 1.91165 8.818C1.60353 8.769 1.42845 8.44 1.35842 8.132C1.2884 8.013 1.15534 7.712 1.18335 7.376C1.22537 6.928 1.40744 6.725 1.61053 6.648V6.578C1.61053 6.025 1.66655 5.227 1.76459 4.702C1.7856 4.555 1.82062 4.408 1.86263 4.268C2.05171 3.624 2.45087 3.05 2.98309 2.644C3.53632 2.224 4.31364 2 5.00693 2C5.33411 2 5.68001 2.04989 6.01223 2.14672C5.7949 2.49423 5.6236 2.87149 5.50686 3.26821C5.4504 3.45668 5.40014 3.66374 5.36809 3.87967C5.2656 4.43758 5.20281 5.19509 5.18394 5.82003C4.89833 6.12479 4.73325 6.54881 4.68749 7.03675L4.68672 7.04603C4.64162 7.58698 4.80753 8.05344 4.941 8.32293C5.00462 8.54987 5.10814 8.8016 5.27172 9.02957C5.37327 9.17111 5.5089 9.31698 5.68165 9.43616C5.69106 9.46311 5.69909 9.48917 5.70702 9.51491C5.72434 9.57111 5.74122 9.6259 5.77109 9.68562C6.03457 10.3731 6.41829 10.9965 6.89898 11.5029C6.88981 11.6544 6.86926 11.6886 6.74021 11.78C6.60995 11.8723 6.3975 11.9938 6.05368 12.1461C5.81378 12.2524 5.51617 12.3745 5.19595 12.5058C4.65057 12.7294 4.03896 12.9802 3.53226 13.2271C3.10484 13.4354 2.67522 13.6741 2.30967 13.9516C1.9518 14.2232 1.58897 14.5813 1.38641 15.0502C1.37162 15.0844 1.35602 15.1163 1.33991 15.1492Z" fill="black"/>
<path d="M13.9462 12.1461L13.9478 12.1469C14.2296 12.2724 14.5387 12.3989 14.8723 12.5355L14.8748 12.5366C14.9632 12.5728 15.0534 12.6097 15.1453 12.6475C15.5752 12.8245 16.0334 13.0173 16.4642 13.2269C16.8919 13.435 17.3222 13.6737 17.6883 13.951C18.0466 14.2224 18.4386 14.6809 18.6414 15.1505C18.7924 15.4999 18.9999 16 18.9999 19H20V15C20 13.7258 19.1247 12.8886 18.0952 12.43C16.9723 11.9325 16.9595 11.6085 16.9441 11.221C16.9417 11.1616 16.9392 11.1003 16.9327 11.037C16.9296 11.0088 16.9279 10.9791 16.9263 10.9487L16.9256 10.9356C16.9239 10.9023 16.9221 10.8681 16.9187 10.834C17.3599 10.442 17.7241 9.903 17.9621 9.28C17.9621 9.28 17.9762 9.245 17.9762 9.238C18.0252 9.105 18.0672 8.965 18.1092 8.818C18.4033 8.755 18.5784 8.433 18.6414 8.132C18.7115 8.013 18.8445 7.712 18.8165 7.376C18.7745 6.942 18.5994 6.739 18.4033 6.655V6.578C18.4033 6.025 18.3543 5.227 18.2493 4.702C18.2283 4.555 18.1932 4.408 18.1512 4.268C17.9621 3.624 17.563 3.05 17.0308 2.644C16.4775 2.224 15.7002 2 15.0069 2C14.6803 2 14.335 2.04972 14.0033 2.14623C14.2215 2.49525 14.393 2.87336 14.5092 3.26837C14.5652 3.45512 14.615 3.66013 14.6471 3.87393C14.7593 4.44772 14.8172 5.22018 14.8334 5.84405C15.1059 6.14529 15.2659 6.55689 15.3121 7.03407L15.3132 7.04602C15.358 7.58308 15.1947 8.04673 15.0617 8.31708C15.0001 8.54527 14.8987 8.79044 14.7427 9.01272C14.6446 9.15252 14.5139 9.29765 14.347 9.41863L14.3369 9.44905C14.3149 9.5158 14.2926 9.58328 14.2668 9.64922C14.0036 10.3366 13.6215 10.9626 13.1463 11.4737C13.1469 11.487 13.1474 11.5003 13.1478 11.5136L13.1483 11.5319C13.1499 11.5832 13.1514 11.6348 13.1582 11.6855C13.1911 11.7236 13.3529 11.8833 13.9462 12.1461Z" fill="black"/>
</svg>

<svg xmlns="http://www.w3.org/2000/svg" viewBox="0 0 20 20">
  <path d="M17.691 15.328c-.456-1.056-2.68-1.752-4.154-2.408-1.48-.656-1.272-1.048-1.328-1.592-.008-.072-.008-.152-.016-.232.504-.448.92-1.064 1.192-1.776 0 0 .016-.04.016-.048q.082-.228.152-.48c.337-.072.537-.44.609-.784.08-.136.232-.48.2-.864-.048-.496-.248-.728-.472-.824v-.088c0-.632-.056-1.544-.177-2.144a3.64 3.64 0 0 0-1.393-2.352C11.69 1.256 10.8 1 10.009 1s-1.68.256-2.313.736a3.64 3.64 0 0 0-1.393 2.352c-.112.6-.176 1.512-.176 2.144v.08c-.232.088-.44.32-.488.832-.032.384.12.728.2.864.08.352.28.728.633.784.04.168.096.328.152.48 0 .008.008.024.008.032l.008.016c.272.728.696 1.352 1.216 1.8 0 .072-.008.144-.016.208-.056.544.104.936-1.376 1.592-1.481.656-3.698 1.352-4.154 2.408S2 19 2 19h16s.147-2.616-.309-3.672"/>
  <path d="M1.34 15.15c-.148.302-.34.693-.34 3.85H0v-4c0-1.3.851-2.103 1.905-2.57 1.149-.51 1.168-.837 1.192-1.236l.012-.157q.012-.086.014-.182c-.455-.392-.826-.938-1.064-1.575l-.007-.014q0-.006-.004-.014l-.001-.005-.002-.009a4 4 0 0 1-.133-.42c-.308-.049-.484-.378-.554-.686a1.37 1.37 0 0 1-.175-.756c.042-.448.224-.651.428-.728v-.07c0-.553.056-1.351.154-1.876a3.186 3.186 0 0 1 1.218-2.058C3.536 2.224 4.313 2 5.007 2c.327 0 .673.05 1.005.147a4.5 4.5 0 0 0-.505 1.121 4.4 4.4 0 0 0-.139.612 14 14 0 0 0-.184 1.94c-.286.305-.45.729-.497 1.217v.009c-.045.541.12 1.007.254 1.277.064.227.167.479.33.707.102.141.238.287.41.406q.014.04.026.079c.017.056.034.11.064.17.264.688.647 1.311 1.128 1.818-.01.151-.03.186-.159.277-.13.092-.343.214-.686.366-.24.106-.538.228-.858.36-.545.223-1.157.474-1.664.721a7.4 7.4 0 0 0-1.222.725c-.358.271-.721.63-.924 1.098q-.022.05-.046.1M13.946 12.146h.002c.282.126.59.253.924.39h.003l.27.112c.43.177.888.37 1.32.579.427.208.857.447 1.223.724.359.271.75.73.953 1.2C18.792 15.5 19 16 19 19h1v-4c0-1.274-.875-2.111-1.905-2.57-1.123-.498-1.136-.822-1.15-1.209a3 3 0 0 0-.012-.184l-.007-.088v-.013l-.007-.102a4 4 0 0 0 1.043-1.554s.014-.035.014-.042c.05-.133.091-.273.133-.42.294-.063.47-.385.532-.686.07-.119.204-.42.176-.756-.043-.434-.218-.637-.414-.721v-.077c0-.553-.049-1.351-.154-1.876a3.186 3.186 0 0 0-1.219-2.058C16.478 2.224 15.7 2 15.008 2c-.327 0-.672.05-1.004.146.219.35.39.727.506 1.122.056.187.106.392.138.606.112.574.17 1.346.186 1.97.273.301.433.713.48 1.19v.012c.045.537-.118 1-.251 1.271a2.2 2.2 0 0 1-.32.696c-.097.14-.228.285-.395.406l-.01.03a5.65 5.65 0 0 1-1.19 2.025v.04l.001.018q.001.077.01.153c.033.039.195.198.788.461"/>
</svg>
